src/assets/img/404/404.svg

<svg xmlns="http://www.w3.org/2000/svg" width="552" height="552" fill="none">
  <g opacity=".64" style="mix-blend-mode:overlay">
    <circle cx="276" cy="276" r="275.5" stroke="#17233A"/>
    <circle cx="184.5" cy="378.5" r="13" fill="#17233A" stroke="#17233A"/>
    <circle cx="367.5" cy="173.5" r="13" fill="#17233A" stroke="#17233A"/>
    <circle cx="276" cy="276" r="137.5" stroke="#17233A"/>
    <mask id="a" width="464" height="179" x="42" y="192" fill="#000" maskUnits="userSpaceOnUse">
      <path fill="#fff" d="M42 192h464v179H42z"/>
      <path d="M123.4 367V228.896l17.08.976-60.024 73.444-4.148-6.1h110.776v30.988H58.496l-15.128-28.792L129.5 195.224h29.28V367zm152.363 2.44q-21.96 0-37.576-10.492-15.373-10.493-23.668-30.012-8.052-19.764-8.052-47.336t8.052-47.092q8.296-19.764 23.668-30.256 15.615-10.492 37.576-10.492t37.576 10.492 23.668 30.256q8.296 19.52 8.296 47.092t-8.296 47.336q-8.052 19.52-23.668 30.012t-37.576 10.492m0-31.476q16.347 0 25.376-14.64t9.028-41.724q0-27.571-9.028-42.456-9.029-14.884-25.376-14.884-16.593 0-25.62 14.884-8.784 14.884-8.784 42.456 0 27.084 8.784 41.724 9.027 14.64 25.62 14.64M441.029 367V228.896l17.08.976-60.024 73.444-4.148-6.1h110.776v30.988H376.125l-15.128-28.792 86.132-104.188h29.28V367z"/>
    </mask>
    <path fill="#fff" d="M123.4 367V228.896l17.08.976-60.024 73.444-4.148-6.1h110.776v30.988H58.496l-15.128-28.792L129.5 195.224h29.28V367zm152.363 2.44q-21.96 0-37.576-10.492-15.373-10.493-23.668-30.012-8.052-19.764-8.052-47.336t8.052-47.092q8.296-19.764 23.668-30.256 15.615-10.492 37.576-10.492t37.576 10.492 23.668 30.256q8.296 19.52 8.296 47.092t-8.296 47.336q-8.052 19.52-23.668 30.012t-37.576 10.492m0-31.476q16.347 0 25.376-14.64t9.028-41.724q0-27.571-9.028-42.456-9.029-14.884-25.376-14.884-16.593 0-25.62 14.884-8.784 14.884-8.784 42.456 0 27.084 8.784 41.724 9.027 14.64 25.62 14.64M441.029 367V228.896l17.08.976-60.024 73.444-4.148-6.1h110.776v30.988H376.125l-15.128-28.792 86.132-104.188h29.28V367z"/>
    <path fill="#17233A" d="M123.4 367h-1v1h1zm0-138.104.057-.998-1.057-.061v1.059zm17.08.976.774.633 1.242-1.519-1.959-.112zm-60.024 73.444-.827.562.753 1.108.848-1.037zm-4.148-6.1v-1h-1.89l1.063 1.562zm110.776 0h1v-1h-1zm0 30.988v1h1v-1zm-128.588 0-.885.465.28.535h.605zm-15.128-28.792-.77-.637-.425.513.31.589zM129.5 195.224v-1h-.471l-.3.363zm29.28 0h1v-1h-1zm0 171.776v1h1v-1zm-34.38 0V228.896h-2V367zm-1.057-137.106 17.08.976.114-1.996-17.08-.976zm16.363-.655-60.024 73.444 1.548 1.266 60.024-73.444zm-58.423 73.515-4.148-6.1-1.654 1.124 4.148 6.1zm-4.975-4.538h110.776v-2H76.308zm109.776-1v30.988h2v-30.988zm1 29.988H58.496v2h128.588zm-127.703.535-15.128-28.792-1.77.93 15.128 28.792zm-15.242-27.69 86.132-104.188-1.542-1.274-86.132 104.188zM129.5 196.224h29.28v-2H129.5zm28.28-1V367h2V195.224zm1 170.776H123.4v2h35.38zm79.407-7.052-.564.826.006.004zm-23.668-30.012-.926.377.002.007.003.007zm0-94.428-.922-.387-.003.006zm23.668-30.256-.558-.83-.006.004zm75.152 0 .557-.83zm23.668 30.256-.926.377.002.007.003.007zm0 94.428-.922-.387-.003.006zm-23.668 30.012.557.83zm-12.2-119.804.855-.519zm-50.996 0-.855-.519-.006.011zm0 84.18-.858.515.007.01zm25.62 45.116c-14.476 0-26.799-3.456-37.019-10.322l-1.115 1.66c10.602 7.123 23.329 10.662 38.134 10.662zm-37.013-10.318c-10.068-6.872-17.844-16.715-23.311-29.577l-1.841.782c5.595 13.164 13.598 23.33 24.025 30.447zm-23.305-29.563c-5.307-13.027-7.978-28.671-7.978-46.959h-2c0 18.475 2.697 34.388 8.126 47.713zm-7.978-46.959c0-18.289 2.671-33.849 7.976-46.711l-1.849-.762c-5.43 13.165-8.127 28.999-8.127 47.473zm7.974-46.705c5.467-13.026 13.244-22.947 23.309-29.817l-1.127-1.652c-10.43 7.119-18.433 17.369-24.026 30.695zm23.303-29.813c10.22-6.866 22.543-10.322 37.019-10.322v-2c-14.805 0-27.532 3.539-38.134 10.662zm37.019-10.322c14.475 0 26.798 3.456 37.018 10.322l1.115-1.66c-10.601-7.123-23.329-10.662-38.133-10.662zm37.018 10.322c10.224 6.869 17.996 16.786 23.3 29.803l1.852-.754c-5.433-13.335-13.439-23.589-24.037-30.709zm23.305 29.817c5.465 12.859 8.217 28.416 8.217 46.701h2c0-18.477-2.779-34.315-8.376-47.483zm8.217 46.701c0 18.285-2.752 33.925-8.218 46.949l1.844.774c5.594-13.328 8.374-29.245 8.374-47.723zm-8.221 46.955c-5.302 12.854-13.074 22.692-23.301 29.563l1.115 1.66c10.595-7.118 18.601-17.288 24.035-30.461zm-23.301 29.563c-10.22 6.866-22.543 10.322-37.018 10.322v2c14.804 0 27.532-3.539 38.133-10.662zm-37.018-19.154c11.267 0 20.038-5.078 26.227-15.115l-1.702-1.05c-5.848 9.483-13.995 14.165-24.525 14.165zm26.227-15.115c6.157-9.984 9.177-24.105 9.177-42.249h-2c0 17.968-2.999 31.663-8.879 41.199zm9.177-42.249c0-18.467-3.02-32.829-9.173-42.975l-1.71 1.038c5.883 9.7 8.883 23.641 8.883 41.937zm-9.173-42.975c-6.186-10.198-14.956-15.365-26.231-15.365v2c10.522 0 18.669 4.755 24.521 14.403zm-26.231-15.365c-11.432 0-20.286 5.162-26.475 15.365l1.71 1.038c5.848-9.642 14.073-14.403 24.765-14.403zm-26.481 15.376c-5.986 10.142-8.923 24.5-8.923 42.964h2c0-18.299 2.919-32.245 8.645-41.948zm-8.923 42.964c0 18.141 2.937 32.257 8.926 42.239L251 322.81c-5.723-9.539-8.641-23.239-8.641-41.21zm8.933 42.249c6.192 10.042 15.047 15.115 26.471 15.115v-2c-10.699 0-18.924-4.687-24.769-14.165zM441.029 367h-1v1h1zm0-138.104.057-.998-1.057-.061v1.059zm17.08.976.774.633 1.242-1.519-1.959-.112zm-60.024 73.444-.827.562.753 1.108.848-1.037zm-4.148-6.1v-1h-1.889l1.062 1.562zm110.776 0h1v-1h-1zm0 30.988v1h1v-1zm-128.588 0-.885.465.281.535h.604zm-15.128-28.792-.771-.637-.424.513.31.589zm86.132-104.188v-1h-.471l-.3.363zm29.28 0h1v-1h-1zm0 171.776v1h1v-1zm-34.38 0V228.896h-2V367zm-1.057-137.106 17.08.976.114-1.996-17.08-.976zm16.363-.655-60.024 73.444 1.548 1.266 60.024-73.444zm-58.423 73.515-4.148-6.1-1.654 1.124 4.148 6.1zm-4.975-4.538h110.776v-2H393.937zm109.776-1v30.988h2v-30.988zm1 29.988H376.125v2h128.588zm-127.703.535-15.128-28.792-1.77.93 15.128 28.792zm-15.242-27.69L447.9 195.861l-1.542-1.274-86.132 104.188zm85.361-103.825h29.28v-2h-29.28zm28.28-1V367h2V195.224zm1 170.776h-35.38v2h35.38z" mask="url(#a)"/>
  </g>
</svg>

<svg width="552" height="552" viewBox="0 0 552 552" fill="none" xmlns="http://www.w3.org/2000/svg">
<g style="mix-blend-mode:overlay" opacity="0.64">
<circle cx="276" cy="276" r="275.5" stroke="#17233A"/>
<circle cx="184.5" cy="378.5" r="13" fill="#17233A" stroke="#17233A"/>
<circle cx="367.5" cy="173.5" r="13" fill="#17233A" stroke="#17233A"/>
<circle cx="276" cy="276" r="137.5" stroke="#17233A"/>
<mask id="path-5-outside-1_9572_9556" maskUnits="userSpaceOnUse" x="42" y="192" width="464" height="179" fill="black">
<rect fill="white" x="42" y="192" width="464" height="179"/>
<path d="M123.4 367V228.896L140.48 229.872L80.456 303.316L76.308 297.216H187.084V328.204H58.496L43.368 299.412L129.5 195.224H158.78V367H123.4ZM275.763 369.44C261.123 369.44 248.597 365.943 238.187 358.948C227.939 351.953 220.049 341.949 214.519 328.936C209.151 315.76 206.467 299.981 206.467 281.6C206.467 263.219 209.151 247.521 214.519 234.508C220.049 221.332 227.939 211.247 238.187 204.252C248.597 197.257 261.123 193.76 275.763 193.76C290.403 193.76 302.928 197.257 313.339 204.252C323.749 211.247 331.639 221.332 337.007 234.508C342.537 247.521 345.303 263.219 345.303 281.6C345.303 299.981 342.537 315.76 337.007 328.936C331.639 341.949 323.749 351.953 313.339 358.948C302.928 365.943 290.403 369.44 275.763 369.44ZM275.763 337.964C286.661 337.964 295.12 333.084 301.139 323.324C307.157 313.564 310.167 299.656 310.167 281.6C310.167 263.219 307.157 249.067 301.139 239.144C295.12 229.221 286.661 224.26 275.763 224.26C264.701 224.26 256.161 229.221 250.143 239.144C244.287 249.067 241.359 263.219 241.359 281.6C241.359 299.656 244.287 313.564 250.143 323.324C256.161 333.084 264.701 337.964 275.763 337.964ZM441.029 367V228.896L458.109 229.872L398.085 303.316L393.937 297.216H504.713V328.204H376.125L360.997 299.412L447.129 195.224H476.409V367H441.029Z"/>
</mask>
<path d="M123.4 367V228.896L140.48 229.872L80.456 303.316L76.308 297.216H187.084V328.204H58.496L43.368 299.412L129.5 195.224H158.78V367H123.4ZM275.763 369.44C261.123 369.44 248.597 365.943 238.187 358.948C227.939 351.953 220.049 341.949 214.519 328.936C209.151 315.76 206.467 299.981 206.467 281.6C206.467 263.219 209.151 247.521 214.519 234.508C220.049 221.332 227.939 211.247 238.187 204.252C248.597 197.257 261.123 193.76 275.763 193.76C290.403 193.76 302.928 197.257 313.339 204.252C323.749 211.247 331.639 221.332 337.007 234.508C342.537 247.521 345.303 263.219 345.303 281.6C345.303 299.981 342.537 315.76 337.007 328.936C331.639 341.949 323.749 351.953 313.339 358.948C302.928 365.943 290.403 369.44 275.763 369.44ZM275.763 337.964C286.661 337.964 295.12 333.084 301.139 323.324C307.157 313.564 310.167 299.656 310.167 281.6C310.167 263.219 307.157 249.067 301.139 239.144C295.12 229.221 286.661 224.26 275.763 224.26C264.701 224.26 256.161 229.221 250.143 239.144C244.287 249.067 241.359 263.219 241.359 281.6C241.359 299.656 244.287 313.564 250.143 323.324C256.161 333.084 264.701 337.964 275.763 337.964ZM441.029 367V228.896L458.109 229.872L398.085 303.316L393.937 297.216H504.713V328.204H376.125L360.997 299.412L447.129 195.224H476.409V367H441.029Z" fill="white"/>
<path d="M123.4 367H122.4V368H123.4V367ZM123.4 228.896L123.457 227.898L122.4 227.837V228.896H123.4ZM140.48 229.872L141.254 230.505L142.496 228.986L140.537 228.874L140.48 229.872ZM80.456 303.316L79.6291 303.878L80.3825 304.986L81.2303 303.949L80.456 303.316ZM76.308 297.216V296.216H74.4187L75.4811 297.778L76.308 297.216ZM187.084 297.216H188.084V296.216H187.084V297.216ZM187.084 328.204V329.204H188.084V328.204H187.084ZM58.496 328.204L57.6108 328.669L57.8918 329.204H58.496V328.204ZM43.368 299.412L42.5973 298.775L42.1731 299.288L42.4828 299.877L43.368 299.412ZM129.5 195.224V194.224H129.029L128.729 194.587L129.5 195.224ZM158.78 195.224H159.78V194.224H158.78V195.224ZM158.78 367V368H159.78V367H158.78ZM124.4 367V228.896H122.4V367H124.4ZM123.343 229.894L140.423 230.87L140.537 228.874L123.457 227.898L123.343 229.894ZM139.706 229.239L79.6817 302.683L81.2303 303.949L141.254 230.505L139.706 229.239ZM81.2829 302.754L77.1349 296.654L75.4811 297.778L79.6291 303.878L81.2829 302.754ZM76.308 298.216H187.084V296.216H76.308V298.216ZM186.084 297.216V328.204H188.084V297.216H186.084ZM187.084 327.204H58.496V329.204H187.084V327.204ZM59.3812 327.739L44.2532 298.947L42.4828 299.877L57.6108 328.669L59.3812 327.739ZM44.1387 300.049L130.271 195.861L128.729 194.587L42.5973 298.775L44.1387 300.049ZM129.5 196.224H158.78V194.224H129.5V196.224ZM157.78 195.224V367H159.78V195.224H157.78ZM158.78 366H123.4V368H158.78V366ZM238.187 358.948L237.623 359.774L237.629 359.778L238.187 358.948ZM214.519 328.936L213.593 329.313L213.595 329.32L213.598 329.327L214.519 328.936ZM214.519 234.508L213.597 234.121L213.594 234.127L214.519 234.508ZM238.187 204.252L237.629 203.422L237.623 203.426L238.187 204.252ZM313.339 204.252L313.896 203.422L313.339 204.252ZM337.007 234.508L336.081 234.885L336.083 234.892L336.086 234.899L337.007 234.508ZM337.007 328.936L336.085 328.549L336.082 328.555L337.007 328.936ZM313.339 358.948L313.896 359.778L313.339 358.948ZM301.139 239.144L301.994 238.625L301.139 239.144ZM250.143 239.144L249.288 238.625L249.282 238.636L250.143 239.144ZM250.143 323.324L249.285 323.839L249.292 323.849L250.143 323.324ZM275.763 368.44C261.287 368.44 248.964 364.984 238.744 358.118L237.629 359.778C248.231 366.901 260.958 370.44 275.763 370.44V368.44ZM238.75 358.122C228.682 351.25 220.906 341.407 215.439 328.545L213.598 329.327C219.193 342.491 227.196 352.657 237.623 359.774L238.75 358.122ZM215.445 328.559C210.138 315.532 207.467 299.888 207.467 281.6H205.467C205.467 300.075 208.164 315.988 213.593 329.313L215.445 328.559ZM207.467 281.6C207.467 263.311 210.138 247.751 215.443 234.889L213.594 234.127C208.164 247.292 205.467 263.126 205.467 281.6H207.467ZM215.441 234.895C220.908 221.869 228.685 211.948 238.75 205.078L237.623 203.426C227.193 210.545 219.19 220.795 213.597 234.121L215.441 234.895ZM238.744 205.082C248.964 198.216 261.287 194.76 275.763 194.76V192.76C260.958 192.76 248.231 196.299 237.629 203.422L238.744 205.082ZM275.763 194.76C290.238 194.76 302.561 198.216 312.781 205.082L313.896 203.422C303.295 196.299 290.567 192.76 275.763 192.76V194.76ZM312.781 205.082C323.005 211.951 330.777 221.868 336.081 234.885L337.933 234.131C332.5 220.796 324.494 210.542 313.896 203.422L312.781 205.082ZM336.086 234.899C341.551 247.758 344.303 263.315 344.303 281.6H346.303C346.303 263.123 343.524 247.285 337.927 234.117L336.086 234.899ZM344.303 281.6C344.303 299.885 341.551 315.525 336.085 328.549L337.929 329.323C343.523 315.995 346.303 300.078 346.303 281.6H344.303ZM336.082 328.555C330.78 341.409 323.008 351.247 312.781 358.118L313.896 359.778C324.491 352.66 332.497 342.49 337.931 329.317L336.082 328.555ZM312.781 358.118C302.561 364.984 290.238 368.44 275.763 368.44V370.44C290.567 370.44 303.295 366.901 313.896 359.778L312.781 358.118ZM275.763 338.964C287.03 338.964 295.801 333.886 301.99 323.849L300.288 322.799C294.44 332.282 286.293 336.964 275.763 336.964V338.964ZM301.99 323.849C308.147 313.865 311.167 299.744 311.167 281.6H309.167C309.167 299.568 306.168 313.263 300.288 322.799L301.99 323.849ZM311.167 281.6C311.167 263.133 308.147 248.771 301.994 238.625L300.284 239.663C306.167 249.363 309.167 263.304 309.167 281.6H311.167ZM301.994 238.625C295.808 228.427 287.038 223.26 275.763 223.26V225.26C286.285 225.26 294.432 230.015 300.284 239.663L301.994 238.625ZM275.763 223.26C264.331 223.26 255.477 228.422 249.288 238.625L250.998 239.663C256.846 230.021 265.071 225.26 275.763 225.26V223.26ZM249.282 238.636C243.296 248.778 240.359 263.136 240.359 281.6H242.359C242.359 263.301 245.278 249.355 251.004 239.652L249.282 238.636ZM240.359 281.6C240.359 299.741 243.296 313.857 249.285 323.839L251 322.81C245.277 313.271 242.359 299.571 242.359 281.6H240.359ZM249.292 323.849C255.484 333.891 264.339 338.964 275.763 338.964V336.964C265.064 336.964 256.839 332.277 250.994 322.799L249.292 323.849ZM441.029 367H440.029V368H441.029V367ZM441.029 228.896L441.086 227.898L440.029 227.837V228.896H441.029ZM458.109 229.872L458.883 230.505L460.125 228.986L458.166 228.874L458.109 229.872ZM398.085 303.316L397.258 303.878L398.011 304.986L398.859 303.949L398.085 303.316ZM393.937 297.216V296.216H392.048L393.11 297.778L393.937 297.216ZM504.713 297.216H505.713V296.216H504.713V297.216ZM504.713 328.204V329.204H505.713V328.204H504.713ZM376.125 328.204L375.24 328.669L375.521 329.204H376.125V328.204ZM360.997 299.412L360.226 298.775L359.802 299.288L360.112 299.877L360.997 299.412ZM447.129 195.224V194.224H446.658L446.358 194.587L447.129 195.224ZM476.409 195.224H477.409V194.224H476.409V195.224ZM476.409 367V368H477.409V367H476.409ZM442.029 367V228.896H440.029V367H442.029ZM440.972 229.894L458.052 230.87L458.166 228.874L441.086 227.898L440.972 229.894ZM457.335 229.239L397.311 302.683L398.859 303.949L458.883 230.505L457.335 229.239ZM398.912 302.754L394.764 296.654L393.11 297.778L397.258 303.878L398.912 302.754ZM393.937 298.216H504.713V296.216H393.937V298.216ZM503.713 297.216V328.204H505.713V297.216H503.713ZM504.713 327.204H376.125V329.204H504.713V327.204ZM377.01 327.739L361.882 298.947L360.112 299.877L375.24 328.669L377.01 327.739ZM361.768 300.049L447.9 195.861L446.358 194.587L360.226 298.775L361.768 300.049ZM447.129 196.224H476.409V194.224H447.129V196.224ZM475.409 195.224V367H477.409V195.224H475.409ZM476.409 366H441.029V368H476.409V366Z" fill="#17233A" mask="url(#path-5-outside-1_9572_9556)"/>
</g>
</svg>
